X: 1
T: Reel Antoinette
O: Qu\'ebec
R: reel
Z: 2009 John Chambers <jc:trillian.mit.edu>
M: C|
L: 1/8
K: A
E \
| "A"E2c2 ccAc | E2c2 c3c | e3e ecea | "Bm"fedB "E7"G3E \
| E2d2 ddBd | E2d2 d3d | e3e edBd | "A"cdcB A3E |
| "A"E2c2 ccAc | E2c2 c3c | e3e ecea | "D"f6 ze \
| "D"dffd f2ed | "A"ceec e3E | "E7"EGBc dBGE | "A"AFEC A,3 :|
|: E \
| "A"c3c A2c2 | "D"ffAf "A"e3e | c2ec A2c2 | eece "Bm"d3c \
| "E7"d3d c2B2 | g6 zf | e2ee ddBd | "A"cdcB AcEA |
| "A"c3c A2c2 | "D"ffAf "A"eece | A2AA GAGE | "D"F6 zc \
| d2d2 d2cB | "A"AccB c3E | "E7"EGBc dBGE | "A"AFEC A,3 :|
